!!!COM: Clementi, Muzio
!!!CDT: 1752/01/23/-1832/03/10/
!!!ODT: ~1800///
!!!OTL: Sonata No. 4 in F Major, Op. 36, Mvmt. 2
!!!OPS: Op. 36
!!!ONM: No. 4
!!!OMV: 2. Andante con espressione
**kern	**kern	**dynam
*staff2	*staff1	*staff1/2
*Ipiano	*Ipiano	*Ipiano
*clefF4	*clefG2	*clefG2
*k[b-e-]	*k[b-e-]	*k[b-e-]
*B-:	*B-:	*B-:
*M2/4	*M2/4	*M2/4
*MM80	*MM80	*MM80
=1-	=1-	=1-
*	*^	*
4BB-/	8f/L	8d\L	.
.	8f/	8d\	.
4BB-/	8f/	8d\	.
.	8f/J	8d\J	.
=2	=2	=2	=2
4BB-/	8a/L	4e-\	.
.	8g/J	.	.
4BB-/	4f/	4d\	.
=3	=3	=3	=3
4BB-/	8dd/L	8b-\L	>
.	8cc/	8a\	.
4BB-/	8b-/	8g\	.
.	8a/J	8f\J	.
=4	=4	=4	=4
4BB-/	8a/L	4e-\	.
.	8g/J	.	.
4BB-/	4f/	4d\	.
*	*v	*v	*
=5	=5	=5
4d\ 4f\	8b-\L	.
.	8b-\J	.
4c\ 4f\	8r	.
.	8a/	.
=6	=6	=6
4e-\ 4f\	8cc\L	.
.	8cc\J	.
4d\ 4f\	8r	.
.	8b-\	.
=7	=7	=7
4A\ 4f\	8dd\L	.
.	8cc\	.
4B-\ 4f\	8ee-\	.
.	8dd\J	.
=8	=8	=8
*^	*	*
8.d/L	[4F\	(8.ff\L	.
16B-/Jk	.	16dd\Jk	.
8A/	8F\]	8cc\)	.
8r	8r	8r	.
*v	*v	*	*
=9	=9	=9
*	*^	*
8BB-\L	8f/L	8d\L	<
8B-\	8f/	8d\	.
8BB-\	8f/	8d\	.
8B-\J	8f/J	8d\J	.
=10	=10	=10	=10
8BB-\L	8a/L	4e-\	>
8B-\	8g/J	.	.
8BB-\	4f/	4d\	.
8B-\J	.	.	.
=11	=11	=11	=11
8BB-\L	8ff/L	8dd\L	.
8B-\	8een/	8cc#\J	.
8BB-\	8ee-/	8ccn\L	.
8B-\J	8dd/J	8b-\J	.
=12	=12	=12	=12
8E-\L	8bn/L	4g\	.
8e-\	8cc/J	.	.
8E-\	4cc/	4g\	.
8e-\J	.	.	.
*clefG2	*v	*v	*
=13	=13	=13
(4a/	8ee-\ 8gg\L	.
.	8ee-\ 8gg\J	.
4b-\	8r	.
.	8dd\ 8ff\	.
=14	=14	=14
4f#/	8cc\ 8ee-\L	.
.	8cc\ 8ee-\J	.
4g/)	8r	.
.	8b-\ 8dd\	.
*clefF4	*	*
=15	=15	=15
8E-\ 8e-\L	8g/ 8cc/L	f
8E-\ 8e-\	8g/ 8cc/	.
8F\ 8c\	8e-/ 8a/	.
8F\ 8c\J	8e-/ 8a/J	.
=16	=16	=16
8BB-\L	2d/ 2b-/	.
8F\J	.	.
4B-\	.	.
=17	=17	=17
2r	(16ff\LL	<
.	16een\	.
.	16gg\	.
.	16ff\JJ	.
.	16ee-\LL	>
.	16dd\	.
.	16cc\	.
.	16b-\JJ	.
=18	=18	=18
8e-\L	8.a\L	.
8f\	.	.
.	32b-\LL	.
.	32cc\JJJ	.
8d\	8b-\)	.
8f\J	8r	.
=19	=19	=19
2r	(16ff\LL	<
.	16een\	.
.	16gg\	.
.	16ff\JJ	.
.	16ee-\LL	>
.	16dd\	.
.	16cc\	.
.	16bn\JJ	.
=20	=20	=20
8A\L	8.cc\L	p
8f\	.	.
.	32dd\LL	.
.	32ee-\JJJ	.
8B-\	8dd'\)	.
8f\J	8r	.
=21	=21	=21
8r	16ddd\LL	.
.	16bb-\	.
*clefG2	*	*
8een\	16ddd\	.
.	16bb-\JJ	.
8r	16aa\LL	.
.	16ccc\	.
8ff\	16aa\	.
.	16ccc\JJ	.
=22	=22	=22
8r	16bb-\LL	.
.	16gg\	.
8cc#\	16bb-\	.
.	16gg\JJ	.
8r	16ff\LL	.
.	16aa\	.
8dd\	16ff\	.
.	16aa\JJ	.
=23	=23	=23
8B-/ 8b-/L	16gg\LL	.
.	16dd\	.
8B-/ 8b-/	16gg\	.
.	16dd\JJ	.
8c/ 8g/	16een\LL	.
.	16b-\	.
8c/ 8g/J	16ee\	.
.	16b-\JJ	.
=24	=24	=24
8d/ 8f/L	16ff\LL	.
.	16a\	.
8d/ 8f/J	16ff\	.
.	16a\JJ	.
*clefF4	*	*
8A\L	16cc/LL	f
.	16f/	.
8A\J	16cc#/	.
.	16f/JJ	.
=25	=25	=25
8BB-\ 8B-\L	16een\LL	.
.	16dd\	.
8BB-\ 8B-\	16ccn\	.
.	16b-\JJ	.
8C\ 8c\	16a/LL	.
.	16g/	.
8C\ 8c\J	16f/	.
.	16en/JJ	.
=26	=26	=26
2FF/ 2F/	16f/LL	.
.	16e-/	.
.	16f/	.
.	16e-/JJ	.
.	16f/LL	.
.	16e-/	.
.	16f/	.
.	16e-/JJ	.
=27	=27	=27
*	*^	*
4BB-/	8f/L	8d\L	p
.	8f/	8d\	.
4BB-/	8f/	8d\	.
.	8f/J	8d\J	.
=28	=28	=28	=28
4BB-/	8a/L	4e-\	.
.	8g/J	.	.
4BB-/	4f/	4d\	.
*	*v	*v	*
=29	=29	=29
4BB-/	(16b-/LL	.
.	16dd/	>
.	16a/	.
.	16cc/JJ	.
4BB-/	16g/LL	.
.	16b-/	.
.	16f/	.
.	16a/JJ	.
=30	=30	=30
*	*^	*
4BB-/	8a/L	4e-\	.
.	8g/J	.	.
4BB-/	4f/)	4d\	.
*	*v	*v	*
=31	=31	=31
4d\ 4f\	8b-\L	.
.	8b-\J	.
4c\ 4f\	8r	.
.	8a/	.
=32	=32	=32
4e-\ 4f\	8cc\L	.
.	8cc\J	.
4d\ 4f\	8r	.
.	8b-\	.
=33	=33	=33
4A\ 4f\	8dd\L	.
.	8cc\	.
4B-\ 4f\	8ee-\	.
.	8dd\J	.
=34	=34	=34
*^	*	*
8.d/L	[4F\	(8.ff\L	.
16B-/Jk	.	16dd\Jk	.
8A/	8F\]	8cc''\)	p
8r	8r	8r	.
*v	*v	*	*
=35	=35	=35
*	*^	*
16BB-\LL	8f/L	8d\L	pp
16B-\	.	.	.
16BB-\	8f/	8d\	.
16B-\JJ	.	.	.
16BB-\LL	8f/	8d\	.
16B-\	.	.	.
16BB-\	8f/J	8d\J	.
16B-\JJ	.	.	.
=36	=36	=36	=36
16BB-\LL	8a/L	4e-\	.
16B-\	.	.	.
16BB-\	8g/J	.	.
16B-\JJ	.	.	.
16BB-\LL	4f/	4d\	.
16B-\	.	.	.
16BB-\	.	.	.
16B-\JJ	.	.	.
=37	=37	=37	=37
16BB-\LL	8ff/L	8dd\L	.
16B-\	.	.	.
16BB-\	8een/	8cc#\	.
16B-\JJ	.	.	.
16C\LL	8ee-/	8ccn\	.
16c\	.	.	.
16D\	8dd/J	8b-\J	.
16d\JJ	.	.	.
=38	=38	=38	=38
16E-\LL	8bn/L	4g\	.
16e-\	.	.	.
16E-\	8cc/J	.	.
16e-\JJ	.	.	.
16E-\LL	4cc/	4g\	.
16e-\	.	.	.
16E-\	.	.	.
16e-\JJ	.	.	.
*	*v	*v	*
=39	=39	=39
8r	16gg\LL	.
.	16ee-\	.
*clefG2	*	*
8a/	16gg\	.
.	16ee-\JJ	.
8r	16dd\LL	.
.	16ff\	.
8b-\	16dd\	.
.	16ff\JJ	.
=40	=40	=40
8r	16ee-\LL	.
.	16cc\	.
8f#/	16ee-\	.
.	16cc\JJ	.
8r	16b-\LL	.
.	16dd\	.
8g/	16b-\	.
.	16dd\JJ	.
*clefF4	*	*
=41	=41	=41
8E-\ 8e-\L	16cc/LL	.
.	16g/	.
8E-\ 8e-\	16cc/	.
.	16g/JJ	.
8F\ 8c\	16a\LL	.
.	16ff\	.
8F\ 8c\J	16a\	.
.	16ff\JJ	.
=42	=42	=42
4B-\ 4d\	16ee-\LL	f
.	16dd\	>
.	16bb-\	.
.	16aa\JJ	.
4r	16gg\LL	.
.	16ff\	.
.	16ee-\	.
.	16dd\JJ	.
=43	=43	=43
8E-\ 8e-\L	16cc/LL	.
.	16g/	.
8E-\ 8e-\	16cc/	.
.	16g/JJ	.
8F\ 8c\	16a\LL	.
.	16ff\	.
8F\ 8c\J	16a\	.
.	16ff\JJ	.
=44	=44	=44
4B-\ 4d\	16ee-\LL	f
.	16dd\	.
.	16ddd\	.
.	16aa\JJ	.
4r	16ccc\LL	.
.	16bb-\	.
.	16ff\	.
.	16dd\JJ	.
=45	=45	=45
*	*^	*
16EE-/LL	8cc/L	8g\L	ff
16E-/	.	.	.
16EE-/	8cc/	8g\	.
16E-/JJ	.	.	.
16FF/LL	8a/	8e-\	.
16F/	.	.	.
16FF/	8a/J	8e-\J	.
16F/JJ	.	.	.
=46	=46	=46	=46
4BBB-/ 4BB-/	4b-/	4d\	.
4r	4r	4r	.
*	*v	*v	*
==	==	==
*-	*-	*-
!!!ENC: Craig Stuart Sapp
!!!END: 2004/11/26/
